X:12
%
%%barnumbers 0
%%barnumberfirst 122
%%topspace -1.5cm
%
L:1/4
M:C|
K:F
%
V:S clef=treble bracket=4
V:A clef=treble8
V:T clef=treble8
V:B clef=bass
%
[V:S] F4 | G4 | F4 | B4 | B2 z2 | B4 |
w: Glo-ri-a pa-tri et
[V:A] d4 | d2 _e2 | d4 | d4 | z Bcd- | d/c/B/A/ G/F/ B- |
w: Glo-ri-a pa-tri et fi - ***-***
[V:T] B4 | B2 c2 | A2 BF | G3/2 F/G/A/ B- | BGFD | G>ABd |
w: Glo-ri-a pa-tri et fi *-** - li-o, et fi -* li-
[V:B] B4 | G2 c2 | d3/2 c/B/A/ B | G4 | z gab- | b/a/g/f/ _eB |
w: Glo-ri-a pa -*** tri et fi - **-** li-
%
[V:S] c>Bcd- | d/c/B/A/ G/F/ B- | B A/G/ AA | B4 | z4 |
w: fi *-* ***-*** **-* li-o
[V:A] B A/G/ AA | BG d>e | fd f2 | z dg>f | _e/d/ _e2 c |
w: -**- li-o, et fi *- li-o, et fi - **- li-
[V:T] c2 F2 | z2 B2 | c>Bcd- | d/c/B/A/ G/F/ B- | B A/G/ AA |
w: o,* et fi *-* ***-*** **-* li-
[V:B] f2 z d | g3 g | f3 d | g>f _ed | c3 c |
w: o, et fi-li-o, et fi *-* - li-
%
[V:S] z2 B2 | BB B2- | B2 A2 | FG2 ^F | G2 z2 |
w: et spi-ri-tu- - i san - - cto,
[V:A] dfff | f3 d | fgef- | fedc | d2 f2 |
w: o, et spi-ri-tu-i san *-* *-** cto, et
[V:T] Bddd | d3 B | d_ecd- | dcBA | G2 z d |
w: o, et spi-ri-tu-i san *-* *-** cto, et
[V:B] B4- | B4 | z4 | z4 | z bbb |
w: o,* et spi-ri-
%
%%newpage
%
[V:S] z4 | z4 | z BBB | B3 A | FG2 ^F |
w: et spi-ri-tu-i san -*
[V:A] ff f2- | fdc>d | _e d/c/ d2 | d4- | d2 z2 |
w: spi-ri-tu- - i san - **-* cto,*
[V:T] dd D/E/F/G/ | AB A2 | G2 z G | GG D/E/F/G/ | AB A2 |
w: spi-ri-tu *-* - i san-cto, et spi-ri-tu *-* - i san-
[V:B] b3 a | fg2 ^f | gGGG | G3/2 A/B/c/ d- | dBcd |
w: tu-i san -* cto, et spi-ri-tu *-** - i san -
%
%%vskip 0.5cm
%
[V:S] G2 z G | GG G2- | GDG>F | _EDCc- | c =B/A/ =B2 |]
w: cto, et spi-ri-tu- - i san - *-** -** cto.
[V:A] z _eee | _e3 d | B>cd_e | cd _e2 | d4 |]
w: et spi-ri-tu-i san -** *-* cto.
[V:T] G4- | G4- | G4- | G4- | G4 |]
w: cto. ****
[V:B] Gccc | c3 B | G>A =Bc- | c=B c2 | G4 |]
w: cto, et spi-ri-tu-i san -** *-* cto.

%---------------------------------------------------------------------------
